assets/symbols/mulberry/badminton_racket.svg

<svg height="850.394" viewBox="0 0 850.394 850.394" width="850.394" xmlns="http://www.w3.org/2000/svg"><path d="m413.23 563.7h6.98l10.45 61.88v167.33h-34.97v-167.33l10.46-61.88h6.87z" fill="#ed1e29"/><path d="m341.06 278.58v9.19c-2.51-2.92-4.9-5.98-7.17-9.19zm0-188.48v.47h-.41c.14-.16.27-.32.41-.47z" fill="#fff"/><g fill="none"><g stroke="#231f20"><path d="m516.96 165.41a171.164 171.164 0 0 1 .98 38.3c-1.131 13.1-3.74 25.63-7.631 37.32-5.8 17.42-14.409 32.97-25.119 45.72-8.15 9.71-17.5 17.8-27.761 23.86-8.93 5.29-18.54 9.04-28.609 10.99a84.647 84.647 0 0 1 -16.13 1.55c-15.22 0-29.7-4.07-42.78-11.41-10.66-5.97-20.39-14.11-28.85-23.97-2.51-2.92-4.9-5.98-7.17-9.19-7.82-11.02-14.21-23.69-18.82-37.55-3.88-11.67-6.49-24.18-7.62-37.25a171.29 171.29 0 0 1 1-38.61c1.85-13.11 5.2-25.56 9.82-37.05 5.68-14.15 13.29-26.85 22.38-37.55.14-.16.27-.32.41-.47 8.32-9.7 17.87-17.73 28.32-23.67 8.96-5.1 18.57-8.66 28.64-10.43a84.647 84.647 0 0 1 30.8.27c9.66 1.87 18.899 5.4 27.52 10.35 10.48 6.02 20.061 14.14 28.391 23.95.149.18.31.36.46.55 8.89 10.58 16.329 23.09 21.92 37 4.649 11.56 8.009 24.1 9.849 37.29zm-103.73 160.9v237.39" stroke-width="20.917"/><path d="m413.34 563.7h6.87l10.45 61.88v167.33h-34.97v-167.33l10.46-61.88h6.87m.32 0h-.32m-74.85-473.13h152.96m13.07 37.55h9.73m-190.57 0h180.84m-191.88 0h11.04m185.2 37.68h5.37m-197.55 0h192.18m-196.24 0h4.06m193.05 37.55h4.5m-201.61 0h197.11m-5.23 37.68h9.73m-194.49 0h184.76m-191.88 0h7.12m12.63 37.55h66.68l28.74-.01h62.77m-5.07-187.68v-8.72m0 198.71v-189.99m0 196.96v-1.1-5.87m-28.85 27.06v-241.46m-28.85 247.95v-253.62m0 255.44v-1.82m-28.74.01v-254.06m0 255.87v-1.81m-28.84-9.16v-237.92m0 248.89v-10.97m-28.85-17.43v-200.9" stroke-width="6.972"/></g><path d="m0 0h850.394v850.394h-850.394z"/></g></svg>

<svg xmlns="http://www.w3.org/2000/svg" width="850.394" height="850.394" viewBox="0 0 850.394 850.394" overflow="visible"><path fill="#ed1e29" d="M413.23 563.7h6.98l10.45 61.88v167.33h-34.97V625.58l10.46-61.88h6.87z"/><path d="M341.06 278.58v9.19c-2.51-2.92-4.9-5.98-7.17-9.19h7.17zM341.06 90.1v.47h-.41c.14-.16.27-.32.41-.47z" fill="#fff"/><g fill="none" stroke="#231f20"><path d="M516.96 165.41a171.164 171.164 0 0 1 .98 38.3c-1.131 13.1-3.74 25.63-7.631 37.32-5.8 17.42-14.409 32.97-25.119 45.72-8.15 9.71-17.5 17.8-27.761 23.86-8.93 5.29-18.54 9.04-28.609 10.99a84.647 84.647 0 0 1-16.13 1.55c-15.22 0-29.7-4.07-42.78-11.41-10.66-5.97-20.39-14.11-28.85-23.97-2.51-2.92-4.9-5.98-7.17-9.19-7.82-11.02-14.21-23.69-18.82-37.55-3.88-11.67-6.49-24.18-7.62-37.25a171.29 171.29 0 0 1 1-38.61c1.85-13.11 5.2-25.56 9.82-37.05 5.68-14.15 13.29-26.85 22.38-37.55.14-.16.27-.32.41-.47 8.32-9.7 17.87-17.73 28.32-23.67 8.96-5.1 18.57-8.66 28.64-10.43a84.647 84.647 0 0 1 30.8.27c9.66 1.87 18.899 5.4 27.52 10.35 10.48 6.02 20.061 14.14 28.391 23.95.149.18.31.36.46.55 8.89 10.58 16.329 23.09 21.92 37 4.649 11.56 8.009 24.1 9.849 37.29zM413.23 326.31V563.7" stroke-width="20.917"/><path stroke-width="6.972" d="M413.34 563.7h6.87l10.45 61.88v167.33h-34.97V625.58l10.46-61.88h6.87M413.34 563.7h-.32M338.17 90.57h152.96M504.2 128.12h9.73M323.36 128.12H504.2M312.32 128.12h11.04M508.56 165.8h5.37M316.38 165.8h192.18M312.32 165.8h4.06M509.43 203.35h4.5M312.32 203.35h197.11M504.2 241.03h9.73M319.44 241.03H504.2M312.32 241.03h7.12M332.07 278.58h66.68l28.74-.01h62.77M485.19 90.89v-8.72M485.19 280.88V90.89M485.19 287.85v-1.1-5.87M456.34 307.94V66.48M427.49 314.43V60.81M427.49 316.25v-1.82M398.75 314.44V60.38M398.75 316.25v-1.81M369.91 305.28V67.36M369.91 316.25V305.28M341.06 287.85V86.95"/></g><path fill="none" d="M0 0h850.394v850.394H0z"/></svg>
